X:256
T:Jamaica Farewell
Z:Jack Campin, http://www.campin.me.uk/
F:Jack Campin's Nine-Note Tunebook
% last edit 27-02-2013
M:8/8
L:1/8
Q:1/4=120
P:AABA
K:D
P:A
A AA|D2D F2F FF|E2E G2G GG|C2C E2E EE|D2D F2
A AA|D2D F2F FF|E2E G2G GG|FFF FE2 E2|E2D D2||
P:B
z3  |A2A A2A AA|B2c d2d cB|A2A AG2 GG|F2G A2
D FA|A2A A2A AA|B2c d2d cB|A2A AG2 GG|F2E D2|]


% == Jazz tunes =============================================================

